actions/22x22-light/kt-chunks.svg

<svg xmlns="http://www.w3.org/2000/svg" viewBox="0 0 22 22">
 <defs id="defs3051">
   <style type="text/css" id="current-color-scheme">
     .ColorScheme-Text {
       color:#4d4d4d;
     }
     </style>
 </defs>
   <path
      style="fill:currentColor;fill-opacity:1;stroke:none"
      d="m3 3v16h16v-16zm1 1h1v14h-1zm3 0h2v14h-2zm3 0h1v14h-1zm3 0h2v14h-2zm3 0h2v14h-2z"
      class="ColorScheme-Text" />
</svg>

<svg xmlns="http://www.w3.org/2000/svg" viewBox="0 0 22 22">
  <defs id="defs3051">
    <style type="text/css" id="current-color-scheme">
      .ColorScheme-Text {
        color:#4d4d4d;
      }
      </style>
  </defs>
 <path 
     style="fill:currentColor;fill-opacity:1;stroke:none" 
     d="M 3 3 L 3 19 L 19 19 L 19 3 L 3 3 z M 4 4 L 5 4 L 5 18 L 4 18 L 4 4 z M 7 4 L 9 4 L 9 18 L 7 18 L 7 4 z M 10 4 L 11 4 L 11 18 L 10 18 L 10 4 z M 13 4 L 15 4 L 15 18 L 13 18 L 13 4 z M 16 4 L 18 4 L 18 18 L 16 18 L 16 4 z "
     class="ColorScheme-Text"
     />
</svg>
